src/icons/SVG/48px/Universe_ChristmasTree_48px.svg

<svg width="48" height="48" viewBox="0 0 48 48" fill="none" xmlns="http://www.w3.org/2000/svg">
<g id="Square"> </g>
<g id="Icon">
<path id="Union" fill-rule="evenodd" clip-rule="evenodd" d="M25.2 5.1C24.9167 4.72229 24.4721 4.5 24 4.5C23.5279 4.5 23.0833 4.72229 22.8 5.1L16.8 13.1C16.3521 13.6972 16.4115 14.5328 16.9393 15.0607C17.4455 15.5668 18.1154 15.9346 18.8279 16.2046L12.8711 23.0122C12.3511 23.6066 12.3809 24.5023 12.9393 25.0607C13.7611 25.8824 14.8085 26.53 15.9663 27.0301L8.87889 35.0035C8.59057 35.3278 8.45686 35.7612 8.51229 36.1916C8.56773 36.622 8.80686 37.0073 9.16796 37.2481C10.895 38.3994 13.2316 39.2005 15.7611 39.7194C17.8626 40.1505 20.1682 40.401 22.5 40.4759V42C22.5 42.8284 23.1716 43.5 24 43.5C24.8284 43.5 25.5 42.8284 25.5 42V40.4759C27.8318 40.401 30.1374 40.1505 32.2389 39.7194C34.7683 39.2005 37.105 38.3994 38.8321 37.2481C39.1932 37.0074 39.4323 36.622 39.4877 36.1916C39.5432 35.7612 39.4094 35.3278 39.1211 35.0035L32.0337 27.0301C33.1915 26.53 34.2389 25.8824 35.0607 25.0607C35.6191 24.5023 35.6489 23.6066 35.1289 23.0122L29.1722 16.2046C29.8846 15.9346 30.5545 15.5668 31.0607 15.0607C31.5885 14.5328 31.6479 13.6972 31.2 13.1L25.2 5.1ZM28.8888 28.0076C27.3277 28.3386 25.6563 28.5 24 28.5C22.3437 28.5 20.6723 28.3386 19.1113 28.0076L18.2948 28.9262C19.1247 30.9988 21.2851 32.8681 24.2841 34.2125C27.224 35.5304 30.7731 36.2459 34.1052 36.1435C34.6495 35.9692 35.1554 35.7806 35.6189 35.579L28.8888 28.0076ZM27.3282 37.372C25.9789 37.0292 24.6762 36.58 23.466 36.0375C20.6318 34.767 18.1417 32.904 16.8516 30.5497L12.3812 35.579C13.486 36.0597 14.8329 36.4665 16.3639 36.7806C18.6873 37.2572 21.3348 37.5 24 37.5C25.1201 37.5 26.2371 37.4571 27.3282 37.372ZM22.1289 16.9878C22.1491 16.9647 22.1684 16.9412 22.1869 16.9173C22.7848 16.9729 23.3953 17 24 17C24.6047 17 25.2152 16.9729 25.8131 16.9173C25.8316 16.9412 25.851 16.9647 25.8711 16.9878L27.4889 18.8366C26.2251 21.0075 23.3915 23.9769 18.5937 24.788C17.65 24.5134 16.8393 24.1727 16.1812 23.7851L22.1289 16.9878ZM31.8188 23.7851L28.8641 20.4083C27.7096 22.1648 25.7959 24.15 23.0191 25.4786C23.3445 25.4928 23.6719 25.5 24 25.5C25.8833 25.5 27.7421 25.2637 29.3379 24.8077C30.3109 24.5297 31.1449 24.1821 31.8188 23.7851ZM20.7811 13.6649C20.5817 13.618 20.4005 13.5684 20.2369 13.5175L21.5762 11.7318C22.042 12.3259 22.5869 12.9304 23.2023 13.4899C23.3929 13.6632 23.5918 13.8335 23.7989 13.9988C22.7099 13.9861 21.6549 13.8705 20.7811 13.6649ZM22.8255 10.0661C23.2885 10.7084 23.8694 11.3934 24.5477 12.0101C25.3415 12.7317 26.2304 13.3262 27.1882 13.672C27.1985 13.6697 27.2087 13.6673 27.2189 13.6649C27.4184 13.618 27.5995 13.5684 27.7632 13.5175L24 8.5L22.8255 10.0661ZM25 20C25 20.5523 24.5523 21 24 21C23.4477 21 23 20.5523 23 20C23 19.4477 23.4477 19 24 19C24.5523 19 25 19.4477 25 20ZM21 23C21.5523 23 22 22.5523 22 22C22 21.4477 21.5523 21 21 21C20.4477 21 20 21.4477 20 22C20 22.5523 20.4477 23 21 23ZM26 31C26 31.5523 25.5523 32 25 32C24.4477 32 24 31.5523 24 31C24 30.4477 24.4477 30 25 30C25.5523 30 26 30.4477 26 31ZM17 36C17.5523 36 18 35.5523 18 35C18 34.4477 17.5523 34 17 34C16.4477 34 16 34.4477 16 35C16 35.5523 16.4477 36 17 36ZM30 33C30 33.5523 29.5523 34 29 34C28.4477 34 28 33.5523 28 33C28 32.4477 28.4477 32 29 32C29.5523 32 30 32.4477 30 33Z" fill="black"/>
</g>
</svg>

<svg xmlns="http://www.w3.org/2000/svg" viewBox="0 0 48 48">
  <g id="Square"> </g>
  <path fill-rule="evenodd" d="M25.2 5.1a1.5 1.5 0 00-2.4 0l-6 8a1.5 1.5 0 00.14 1.96c.505.507 1.175.875 1.888 1.145l-5.957 6.807a1.5 1.5 0 00.068 2.049c.822.821 1.87 1.469 3.027 1.97L8.88 35.003a1.5 1.5 0 00.289 2.244c1.727 1.151 4.064 1.953 6.593 2.471 2.102.431 4.407.682 6.739.757V42a1.5 1.5 0 003 0v-1.524c2.332-.075 4.637-.325 6.739-.757 2.53-.519 4.866-1.32 6.593-2.47a1.5 1.5 0 00.29-2.245l-7.088-7.974c1.157-.5 2.205-1.148 3.027-1.97a1.5 1.5 0 00.068-2.048l-5.957-6.807c.713-.27 1.383-.638 1.889-1.144A1.5 1.5 0 0031.2 13.1l-6-8zm3.689 22.908A23.81 23.81 0 0124 28.5c-1.656 0-3.328-.161-4.889-.492l-.816.918c.83 2.073 2.99 3.942 5.99 5.287 2.939 1.317 6.488 2.033 9.82 1.93.545-.174 1.05-.362 1.514-.564l-6.73-7.571zm-1.56 9.364a23.808 23.808 0 01-3.863-1.334c-2.834-1.271-5.324-3.134-6.614-5.488l-4.47 5.029c1.104.48 2.45.888 3.982 1.202 2.323.476 4.97.719 7.636.719 1.12 0 2.237-.043 3.328-.128zm-5.2-20.384l.058-.07a19.67 19.67 0 003.626 0l.058.07 1.618 1.849c-1.264 2.17-4.098 5.14-8.895 5.951-.944-.275-1.755-.615-2.413-1.003l5.948-6.797zm9.69 6.797l-2.955-3.377a14.54 14.54 0 01-5.845 5.07c.326.015.653.022.981.022 1.883 0 3.742-.236 5.338-.692.973-.278 1.807-.626 2.48-1.023zM20.78 13.665c-.2-.047-.38-.097-.544-.147l1.34-1.786c.465.594 1.01 1.198 1.625 1.758.19.173.39.344.597.509-1.09-.013-2.144-.129-3.018-.334zm2.045-3.599a12.64 12.64 0 001.722 1.944c.794.722 1.682 1.316 2.64 1.662l.03-.007c.2-.047.381-.097.545-.147L24 8.5l-1.174 1.566zM25 20a1 1 0 11-2 0 1 1 0 012 0zm-4 3a1 1 0 100-2 1 1 0 000 2zm5 8a1 1 0 11-2 0 1 1 0 012 0zm-9 5a1 1 0 100-2 1 1 0 000 2zm13-3a1 1 0 11-2 0 1 1 0 012 0z"/>
</svg>
